X: 151
%
U:~=!turn!
T: The Duchess of Bedford's Strathspey
C:Marshall
O:Scotland
B:Keith Norman MacDonald : "The Skye collection of the best reels & strathspeys extant" : 1887
Z:Ralph Palmer
R:Strathspey
M:C
L:1/8
K:Bb
"Slow when not Danced."B,<B B>c TB2 (FB) | [Fc]<[Fc][Fc]>[Fd] {/d}e2 (Fe) | .d.f.g.f .e.d.c[=EB] |
(A>B) "="~c>d c/B/A/G/ (.F.E) & F>x G>x xx C2 | D<B~B>c TB2 (FB) | [Fc]<[Fc][Fc]>[Fd] {/d}e2 (Fe) |
.d.f.g.f .e.d.c.B | TF>B (A/B/)(c/A/) B2 B & D2 E2 D2 D || e | (d/e/)f/g/ ff {/a}b2 fa |
(b/a/)g/f/ (g/f/)e/d/ (e/d/)c/B/ c>d | (c/d/)e/f/ (g>f) .e.d.c.B | ABc>d (c/B/)A/G/ (F>E) |
.D.B.F.B .F.c.A.c | .F.d .B.d .E.g .e.g | d/f/g/a/ b>f (g/f/)e/d/ (e/d/)c/B/ | TF>B (A/B/)c/A/ [D2B2] [DB] |]


